( Made using CamBam - http://www.cambam.co.uk )
( Drawing1 6/6/2015 12:16:51 PM )
( T0 : 3.0 )
G21 G90 G64 G40
G0 Z3.0
( T0 : 3.0 )
T0 M6
( Profile2 )
G17
M3 S1000
G0 X45.4517 Y54.4292
G1 F800.0 Z-1.0
G2 X44.9517 Y55.5472 I1.0 J1.118
G1 Y56.4292
G1 X43.9517
G2 X42.4517 Y57.9292 I0.0 J1.5
G1 Y59.4292
G1 X17.4517
G1 Y49.4292
G1 X42.4517
G1 Y50.9292
G2 X43.9517 Y52.4292 I1.5 J0.0
G1 X44.9517
G1 Y53.3111
G2 X45.4517 Y54.4292 I1.5 J0.0
G1 Z-2.0
G2 X44.9517 Y55.5472 I1.0 J1.118
G1 Y56.4292
G1 X43.9517
G2 X42.4517 Y57.9292 I0.0 J1.5
G1 Y59.4292
G1 X17.4517
G1 Y49.4292
G1 X42.4517
G1 Y50.9292
G2 X43.9517 Y52.4292 I1.5 J0.0
G1 X44.9517
G1 Y53.3111
G2 X45.4517 Y54.4292 I1.5 J0.0
G1 Z-3.0
G2 X44.9517 Y55.5472 I1.0 J1.118
G1 Y56.4292
G1 X43.9517
G2 X42.4517 Y57.9292 I0.0 J1.5
G1 Y59.4292
G1 X17.4517
G1 Y49.4292
G1 X42.4517
G1 Y50.9292
G2 X43.9517 Y52.4292 I1.5 J0.0
G1 X44.9517
G1 Y53.3111
G2 X45.4517 Y54.4292 I1.5 J0.0
G1 Z-4.0
G2 X44.9517 Y55.5472 I1.0 J1.118
G1 Y56.4292
G1 X43.9517
G2 X42.4517 Y57.9292 I0.0 J1.5
G1 Y59.4292
G1 X17.4517
G1 Y49.4292
G1 X42.4517
G1 Y50.9292
G2 X43.9517 Y52.4292 I1.5 J0.0
G1 X44.9517
G1 Y53.3111
G2 X45.4517 Y54.4292 I1.5 J0.0
G0 Z3.0
G0 X66.4517
G1 Z-1.0
G1 Y29.4292
G1 X76.4517
G1 Y54.4292
G1 X74.9517
G2 X73.4517 Y55.9292 I0.0 J1.5
G1 Y56.9292
G1 X72.5698
G2 X71.4517 Y57.4292 I0.0 J1.5
G2 X70.3337 Y56.9292 I-1.118 J1.0
G1 X69.4517
G1 Y55.9292
G2 X67.9517 Y54.4292 I-1.5 J0.0
G1 X66.4517
G1 Z-2.0
G1 Y29.4292
G1 X76.4517
G1 Y54.4292
G1 X74.9517
G2 X73.4517 Y55.9292 I0.0 J1.5
G1 Y56.9292
G1 X72.5698
G2 X71.4517 Y57.4292 I0.0 J1.5
G2 X70.3337 Y56.9292 I-1.118 J1.0
G1 X69.4517
G1 Y55.9292
G2 X67.9517 Y54.4292 I-1.5 J0.0
G1 X66.4517
G1 Z-3.0
G1 Y29.4292
G1 X76.4517
G1 Y54.4292
G1 X74.9517
G2 X73.4517 Y55.9292 I0.0 J1.5
G1 Y56.9292
G1 X72.5698
G2 X71.4517 Y57.4292 I0.0 J1.5
G2 X70.3337 Y56.9292 I-1.118 J1.0
G1 X69.4517
G1 Y55.9292
G2 X67.9517 Y54.4292 I-1.5 J0.0
G1 X66.4517
G1 Z-4.0
G1 Y29.4292
G1 X76.4517
G1 Y54.4292
G1 X74.9517
G2 X73.4517 Y55.9292 I0.0 J1.5
G1 Y56.9292
G1 X72.5698
G2 X71.4517 Y57.4292 I0.0 J1.5
G2 X70.3337 Y56.9292 I-1.118 J1.0
G1 X69.4517
G1 Y55.9292
G2 X67.9517 Y54.4292 I-1.5 J0.0
G1 X66.4517
G0 Z3.0
G0 X72.6335 Y81.9898
G1 Z-1.0
G2 X75.4982 Y85.3667 I0.5471 J2.4394
G2 Y83.4917 I-2.3176 J-0.9375
G2 X72.6335 Y81.9898 I-2.3176 J0.9375
G1 Z-2.0
G2 X75.4982 Y85.3667 I0.5471 J2.4394
G2 Y83.4917 I-2.3176 J-0.9375
G2 X72.6335 Y81.9898 I-2.3176 J0.9375
G1 Z-3.0
G2 X75.4982 Y85.3667 I0.5471 J2.4394
G2 Y83.4917 I-2.3176 J-0.9375
G2 X72.6335 Y81.9898 I-2.3176 J0.9375
G1 Z-4.0
G2 X75.4982 Y85.3667 I0.5471 J2.4394
G2 Y83.4917 I-2.3176 J-0.9375
G2 X72.6335 Y81.9898 I-2.3176 J0.9375
G0 Z3.0
G0 X98.3894 Y64.3422
G1 Z-1.0
G2 X99.2017 Y65.0942 I2.0623 J-1.4131
G2 X102.9517 Y62.9292 I1.25 J-2.1651
G2 X99.2017 Y60.7641 I-2.5 J0.0
G2 X98.3894 Y64.3422 I1.25 J2.1651
G1 Z-2.0
G2 X99.2017 Y65.0942 I2.0623 J-1.4131
G2 X102.9517 Y62.9292 I1.25 J-2.1651
G2 X99.2017 Y60.7641 I-2.5 J0.0
G2 X98.3894 Y64.3422 I1.25 J2.1651
G1 Z-3.0
G2 X99.2017 Y65.0942 I2.0623 J-1.4131
G2 X102.9517 Y62.9292 I1.25 J-2.1651
G2 X99.2017 Y60.7641 I-2.5 J0.0
G2 X98.3894 Y64.3422 I1.25 J2.1651
G1 Z-4.0
G2 X99.2017 Y65.0942 I2.0623 J-1.4131
G2 X102.9517 Y62.9292 I1.25 J-2.1651
G2 X99.2017 Y60.7641 I-2.5 J0.0
G2 X98.3894 Y64.3422 I1.25 J2.1651
( Drill1 )
S1000
G0 Z3.0
G0 X15.9517 Y60.9292
G0 Z3.0
G0 X16.0017 Y60.9292
G1 F300.0 Z0.0
G2 F800.0 X15.9267 Y60.8859 Z-1.3333 I-0.05 J0.0
G2 Y60.9725 Z-2.6667 I0.025 J0.0433
G2 X16.0017 Y60.9292 Z-4.0 I0.025 J-0.0433
G2 X15.9267 Y60.8859 I-0.05 J0.0
G2 Y60.9725 I0.025 J0.0433
G2 X16.0017 Y60.9292 I0.025 J-0.0433
G0 Z3.0
G0 Y47.9292
G1 F300.0 Z0.0
G2 F800.0 X15.9267 Y47.8859 Z-1.3333 I-0.05 J0.0
G2 Y47.9725 Z-2.6667 I0.025 J0.0433
G2 X16.0017 Y47.9292 Z-4.0 I0.025 J-0.0433
G2 X15.9267 Y47.8859 I-0.05 J0.0
G2 Y47.9725 I0.025 J0.0433
G2 X16.0017 Y47.9292 I0.025 J-0.0433
G0 Z3.0
G0 X44.0017
G1 F300.0 Z0.0
G2 F800.0 X43.9267 Y47.8859 Z-1.3333 I-0.05 J0.0
G2 Y47.9725 Z-2.6667 I0.025 J0.0433
G2 X44.0017 Y47.9292 Z-4.0 I0.025 J-0.0433
G2 X43.9267 Y47.8859 I-0.05 J0.0
G2 Y47.9725 I0.025 J0.0433
G2 X44.0017 Y47.9292 I0.025 J-0.0433
G0 Z3.0
G0 Y60.9292
G1 F300.0 Z0.0
G2 F800.0 X43.9267 Y60.8859 Z-1.3333 I-0.05 J0.0
G2 Y60.9725 Z-2.6667 I0.025 J0.0433
G2 X44.0017 Y60.9292 Z-4.0 I0.025 J-0.0433
G2 X43.9267 Y60.8859 I-0.05 J0.0
G2 Y60.9725 I0.025 J0.0433
G2 X44.0017 Y60.9292 I0.025 J-0.0433
G0 Z3.0
G0 X65.0017 Y55.9292
G1 F300.0 Z0.0
G2 F800.0 X64.9267 Y55.8859 Z-1.3333 I-0.05 J0.0
G2 Y55.9725 Z-2.6667 I0.025 J0.0433
G2 X65.0017 Y55.9292 Z-4.0 I0.025 J-0.0433
G2 X64.9267 Y55.8859 I-0.05 J0.0
G2 Y55.9725 I0.025 J0.0433
G2 X65.0017 Y55.9292 I0.025 J-0.0433
G0 Z3.0
G0 X78.0017
G1 F300.0 Z0.0
G2 F800.0 X77.9267 Y55.8859 Z-1.3333 I-0.05 J0.0
G2 Y55.9725 Z-2.6667 I0.025 J0.0433
G2 X78.0017 Y55.9292 Z-4.0 I0.025 J-0.0433
G2 X77.9267 Y55.8859 I-0.05 J0.0
G2 Y55.9725 I0.025 J0.0433
G2 X78.0017 Y55.9292 I0.025 J-0.0433
G0 Z3.0
G0 Y27.9292
G1 F300.0 Z0.0
G2 F800.0 X77.9267 Y27.8859 Z-1.3333 I-0.05 J0.0
G2 Y27.9725 Z-2.6667 I0.025 J0.0433
G2 X78.0017 Y27.9292 Z-4.0 I0.025 J-0.0433
G2 X77.9267 Y27.8859 I-0.05 J0.0
G2 Y27.9725 I0.025 J0.0433
G2 X78.0017 Y27.9292 I0.025 J-0.0433
G0 Z3.0
G0 X65.0017
G1 F300.0 Z0.0
G2 F800.0 X64.9267 Y27.8859 Z-1.3333 I-0.05 J0.0
G2 Y27.9725 Z-2.6667 I0.025 J0.0433
G2 X65.0017 Y27.9292 Z-4.0 I0.025 J-0.0433
G2 X64.9267 Y27.8859 I-0.05 J0.0
G2 Y27.9725 I0.025 J0.0433
G2 X65.0017 Y27.9292 I0.025 J-0.0433
( Profile3 )
S1000
G0 Z3.0
G0 X76.8887 Y84.4292
G1 Z-1.0
G1 X103.1806
G0 Z3.0
G0 X76.8887
G1 Z-2.0
G1 X103.1806
( Profile1 )
S1000
G0 Z3.0
G0 X9.9517 Y67.4292
G1 Z-1.0
G3 X3.4517 Y60.9292 I0.0 J-6.5
G1 Y4.4292
G3 X4.9517 Y2.9292 I1.5 J0.0
G1 X54.9517
G3 X56.4517 Y4.4292 I0.0 J1.5
G1 Y60.9292
G3 X49.9517 Y67.4292 I-6.5 J0.0
G1 X9.9517
G1 Y68.4292
G1 X54.9517
G3 X56.4517 Y69.9292 I0.0 J1.5
G1 Y89.9292
G3 X54.9517 Y91.4292 I-1.5 J0.0
G1 X49.9517
G3 X49.4774 Y91.3522 I0.0 J-1.5
G1 X4.4774 Y76.3522
G3 X3.4517 Y74.9292 I0.4743 J-1.423
G1 Y69.9292
G3 X4.9517 Y68.4292 I1.5 J0.0
G1 X9.9517
G0 Z3.0
G0 Y79.3122
G1 Z-1.0
G3 X10.4261 Y79.3892 I0.0 J1.5
G1 X55.4261 Y94.3892
G3 X56.4517 Y95.8122 I-0.4743 J1.423
G1 Y100.8122
G3 X54.9517 Y102.3122 I-1.5 J0.0
G1 X4.9517
G3 X3.4517 Y100.8122 I0.0 J-1.5
G1 Y80.8122
G3 X4.9517 Y79.3122 I1.5 J0.0
G1 X9.9517
G1 Z-2.0
G3 X10.4261 Y79.3892 I0.0 J1.5
G1 X55.4261 Y94.3892
G3 X56.4517 Y95.8122 I-0.4743 J1.423
G1 Y100.8122
G3 X54.9517 Y102.3122 I-1.5 J0.0
G1 X4.9517
G3 X3.4517 Y100.8122 I0.0 J-1.5
G1 Y80.8122
G3 X4.9517 Y79.3122 I1.5 J0.0
G1 X9.9517
G0 Z3.0
G0 X58.2295 Y83.2192
G1 Z-1.0
G3 X85.8004 Y76.3211 I14.9511 J1.21
G2 X88.745 Y77.9292 I2.9446 J-1.8919
G1 X103.1806
G3 X104.6806 Y79.4292 I0.0 J1.5
G1 Y82.9292
G1 Y85.9292
G1 Y89.4292
G3 X103.1806 Y90.9292 I-1.5 J0.0
G1 X88.745
G2 X85.8004 Y92.5373 I0.0 J3.5
G3 X58.2295 Y83.2192 I-12.6198 J-8.1081
G1 X56.4517
G1 Z-2.0
G1 Y89.9292
G3 X54.9517 Y91.4292 I-1.5 J0.0
G1 X49.9517
G3 X49.4774 Y91.3522 I0.0 J-1.5
G1 X4.4774 Y76.3522
G3 X3.4517 Y74.9292 I0.4743 J-1.423
G1 Y69.9292
G3 X4.9517 Y68.4292 I1.5 J0.0
G1 X54.9517
G3 X56.4517 Y69.9292 I0.0 J1.5
G1 Y83.2192
G0 Z3.0
G0 X52.9982 Y93.5799
G1 Z-3.0
G1 X55.4261 Y94.3892
G3 X56.4517 Y95.8122 I-0.4743 J1.423
G1 Y100.8122
G3 X54.9517 Y102.3122 I-1.5 J0.0
G1 X46.2971
G1 X43.7971 Z-2.0
G1 X40.7971
G1 X38.2971 Z-3.0
G1 X33.5537
G1 X31.0537 Z-2.0
G1 X28.0537
G1 X25.5537 Z-3.0
G1 X20.8103
G1 X18.3103 Z-2.0
G1 X15.3103
G1 X12.8103 Z-3.0
G1 X4.9517
G3 X3.4517 Y100.8122 I0.0 J-1.5
G1 Y91.1839
G1 Y88.6839 Z-2.0
G1 Y85.6839
G1 Y83.1839 Z-3.0
G1 Y80.8122
G3 X4.9517 Y79.3122 I1.5 J0.0
G1 X7.5302
G1 X7.6813 Z-2.9396
G1 X9.9517 Z-2.0314
G3 X10.1606 Y79.3268 Z-2.0 I0.0 J1.5
G3 X10.3026 Y79.3538 I-0.2088 J1.4854
G3 X10.4261 Y79.3892 I-0.3509 J1.4584
G1 X13.0145 Y80.252
G1 X13.1504 Y80.2973
G1 X15.3862 Y81.0425 Z-2.9427
G1 X15.5221 Y81.0879 Z-3.0
G1 X19.8862 Y82.5425
G1 X20.0221 Y82.5879 Z-2.9427
G1 X22.2579 Y83.3331 Z-2.0
G1 X22.3938 Y83.3784
G1 X25.1039 Y84.2818
G1 X25.2399 Y84.3271
G1 X27.4756 Y85.0724 Z-2.9427
G1 X27.6116 Y85.1177 Z-3.0
G1 X31.9756 Y86.5724
G1 X32.1116 Y86.6177 Z-2.9427
G1 X34.3473 Y87.3629 Z-2.0
G1 X34.4833 Y87.4083
G1 X37.1934 Y88.3116
G1 X37.3293 Y88.3569
G1 X39.5651 Y89.1022 Z-2.9427
G1 X39.701 Y89.1475 Z-3.0
G1 X44.0651 Y90.6022
G1 X44.201 Y90.6475 Z-2.9427
G1 X46.4368 Y91.3928 Z-2.0
G1 X46.5728 Y91.4381
G1 X49.2829 Y92.3414
G1 X49.4188 Y92.3868
G1 X51.6546 Y93.132 Z-2.9427
G1 X51.7905 Y93.1773 Z-3.0
G1 X52.9982 Y93.5799
G0 Z3.0
G0 X61.8259 Y68.0717
G1 Z-1.0
G3 X57.4517 Y61.9292 I2.1258 J-6.1426
G1 Y4.4292
G3 X58.9517 Y2.9292 I1.5 J0.0
G1 X83.9517
G3 X85.4517 Y4.4292 I0.0 J1.5
G1 Y61.9292
G3 X78.9517 Y68.4292 I-6.5 J0.0
G1 X63.9517
G3 X61.8259 Y68.0717 I0.0 J-6.5
G0 Z3.0
G0 X55.5217 Y64.2796
G1 Z-2.0
G3 X49.9517 Y67.4292 I-5.57 J-3.3504
G1 X9.9517
G3 X3.4517 Y60.9292 I0.0 J-6.5
G1 Y4.4292
G3 X4.9517 Y2.9292 I1.5 J0.0
G1 X54.9517
G3 X56.4517 Y4.4292 I0.0 J1.5
G1 Y60.9292
G3 X55.5217 Y64.2796 I-6.5 J0.0
G0 Z3.0
G0 X86.4517
G1 Z-1.0
G1 Y4.4292
G3 X87.9517 Y2.9292 I1.5 J0.0
G1 X112.9517
G3 X114.4517 Y4.4292 I0.0 J1.5
G1 Y70.4292
G3 X107.9517 Y76.9292 I-6.5 J0.0
G1 X92.9517
G3 X86.4517 Y70.4292 I0.0 J-6.5
G1 Y64.2796
G1 X85.1543 Y63.873
G1 Z-2.0
G3 X78.9517 Y68.4292 I-6.2025 J-1.9438
G1 X63.9517
G3 X57.4517 Y61.9292 I0.0 J-6.5
G1 Y4.4292
G3 X58.9517 Y2.9292 I1.5 J0.0
G1 X83.9517
G3 X85.4517 Y4.4292 I0.0 J1.5
G1 Y61.9292
G3 X85.1543 Y63.873 I-6.5 J0.0
G0 Z3.0
G0 X56.4291 Y61.4708
G1 Z-3.0
G3 X49.9517 Y67.4292 I-6.4774 J-0.5417
G1 X47.0932
G1 X46.7579 Z-2.8659
G1 X44.5932 Z-2.0
G1 X44.2579
G1 X41.5932
G1 X41.2579
G1 X39.0932 Z-2.8659
G1 X38.7579 Z-3.0
G1 X34.3498
G1 X31.8498 Z-2.0
G1 X28.8498
G1 X26.3498 Z-3.0
G1 X24.8871
G1 X22.3871 Z-2.0
G1 X21.6063
G1 X19.3871
G1 X19.1063
G1 X16.8871
G1 X16.1063
G1 X13.6063 Z-3.0
G1 X9.9517
G3 X3.517 Y61.8477 I0.0 J-6.5
G3 X3.4517 Y60.9292 Z-2.6316 I6.4348 J-0.9186
G1 Y59.3477 Z-2.0
G1 Y56.3477
G1 Y53.8477 Z-3.0
G1 Y39.9769
G1 Y37.4769 Z-2.0
G1 Y34.4769
G1 Y31.9769 Z-3.0
G1 Y18.1062
G1 Y15.6062 Z-2.0
G1 Y12.6062
G1 Y10.1062 Z-3.0
G1 Y4.4292
G3 X4.9517 Y2.9292 I1.5 J0.0
G1 X13.1455
G1 X15.6455 Z-2.0
G1 X18.6455
G1 X21.1455 Z-3.0
G1 X35.0163
G1 X37.5163 Z-2.0
G1 X40.5163
G1 X43.0163 Z-3.0
G1 X54.9517
G3 X56.4517 Y4.4292 I0.0 J1.5
G1 Y6.3646
G1 Y8.8646 Z-2.0
G1 Y11.8185
G1 Y11.8646
G1 Y14.3185
G1 Y14.3646
G1 Y17.3185
G1 Y19.8185 Z-3.0
G1 Y28.2354
G1 Y28.8893 Z-2.7384
G1 Y30.7354 Z-2.0
G1 Y31.3893
G1 Y33.7354
G1 Y34.3893
G1 Y36.2354 Z-2.7384
G1 Y36.8893 Z-3.0
G1 Y45.9601
G1 Y48.4601 Z-2.0
G1 Y50.1062
G1 Y51.4601
G1 Y52.6062
G1 Y53.9601
G1 Y55.6062
G1 Y58.1062 Z-3.0
G1 Y60.9292
G3 X56.4291 Y61.4708 I-6.5 J0.0
G0 Z3.0
G0 X105.7665 Y78.9288
G1 Z-1.0
G3 X107.1806 Y77.9292 I1.4141 J0.5004
G1 X125.1806
G3 X126.6806 Y79.4292 I0.0 J1.5
G1 Y99.4292
G3 X125.1806 Y100.9292 I-1.5 J0.0
G1 X107.1806
G3 X105.6806 Y99.4292 I0.0 J-1.5
G1 Y79.4292
G3 X105.7665 Y78.9288 I1.5 J0.0
G1 Z-2.0
G3 X107.1806 Y77.9292 I1.4141 J0.5004
G1 X125.1806
G3 X126.6806 Y79.4292 I0.0 J1.5
G1 Y99.4292
G3 X125.1806 Y100.9292 I-1.5 J0.0
G1 X107.1806
G3 X105.6806 Y99.4292 I0.0 J-1.5
G1 Y79.4292
G3 X105.7665 Y78.9288 I1.5 J0.0
G1 X104.6533 Y79.1442
G3 X104.6806 Y79.4292 I-1.4727 J0.285
G1 Y82.9292
G1 Y85.9292
G1 Y89.4292
G3 X103.1806 Y90.9292 I-1.5 J0.0
G1 X88.745
G2 X85.8004 Y92.5373 I0.0 J3.5
G3 Y76.3211 I-12.6198 J-8.1081
G2 X88.745 Y77.9292 I2.9446 J-1.8919
G1 X103.1806
G3 X104.6533 Y79.1442 I0.0 J1.5
G0 Z3.0
G0 Y76.9292
G1 Z-2.0
G1 X92.9517
G3 X86.4517 Y70.4292 I0.0 J-6.5
G1 Y4.4292
G3 X87.9517 Y2.9292 I1.5 J0.0
G1 X112.9517
G3 X114.4517 Y4.4292 I0.0 J1.5
G1 Y70.4292
G3 X107.9517 Y76.9292 I-6.5 J0.0
G1 X104.6533
G1 Z-3.0
G1 X98.4831
G1 X95.9831 Z-2.0
G1 X92.9831
G1 X92.9517 Z-2.0126
G3 X90.4831 Y76.4422 Z-3.0 I0.0 J-6.5
G3 X86.4517 Y70.4292 I2.4686 J-6.013
G1 Y65.0438
G1 Y62.5438 Z-2.0
G1 Y59.5438
G1 Y57.3938 Z-2.86
G1 Y57.0438 Z-2.7396
G1 Y54.8938 Z-2.0
G1 Y51.8938
G1 Y49.3938 Z-3.0
G1 Y46.273
G1 Y43.773 Z-2.0
G1 Y40.773
G1 Y40.323 Z-2.18
G1 Y38.273 Z-2.0324
G1 Y37.823 Z-2.0
G1 Y34.823
G1 Y32.323 Z-3.0
G1 Y27.5022
G1 Y25.0022 Z-2.0
G1 Y23.2522
G1 Y22.0022
G1 Y20.7522
G1 Y19.5022
G1 Y17.7522
G1 Y15.2522 Z-3.0
G1 Y4.4292
G3 X87.9517 Y2.9292 I1.5 J0.0
G1 X102.4203
G1 X104.9203 Z-2.0
G1 X107.9203
G1 X110.4203 Z-3.0
G1 X112.9517
G3 X114.4517 Y4.4292 I0.0 J1.5
G1 Y12.6685
G1 Y15.1685 Z-2.0
G1 Y18.1685
G1 Y20.6685 Z-3.0
G1 Y31.4393
G1 Y33.9393 Z-2.0
G1 Y36.9393
G1 Y39.4393 Z-3.0
G1 Y50.2101
G1 Y52.7101 Z-2.0
G1 Y55.7101
G1 Y58.2101 Z-3.0
G1 Y69.4839
G1 Y70.4292 Z-2.6219
G3 X114.2031 Y72.2098 Z-2.0 I-6.5 J0.0
G3 X112.7376 Y74.8275 I-6.2514 J-1.7806
G3 X110.4684 Y76.4222 Z-3.0 I-4.7859 J-4.3983
G3 X107.9517 Y76.9292 I-2.5167 J-5.993
G1 X104.6533
G1 X103.942 Y78.1367
G3 X104.6806 Y79.4292 I-0.7613 J1.2924
G1 Y82.9292
G1 Y85.9292
G1 Y89.4292
G3 X103.1806 Y90.9292 I-1.5 J0.0
G1 X92.9398
G1 X90.4398 Z-2.0
G1 X88.745
G2 X87.4398 Y91.1816 I0.0 J3.5
G2 X85.8004 Y92.5373 Z-2.8509 I1.3052 J3.2475
G3 X84.9398 Y93.7416 Z-3.0 I-12.6198 J-8.1081
G3 X83.7112 Y95.1113 I-11.7592 J-9.3125
G3 X81.755 Y96.7369 Z-2.0 I-10.5305 J-10.6821
G3 X79.1343 Y98.197 I-8.5744 J-12.3077
G3 X76.7227 Y99.005 Z-3.0 I-5.9537 J-13.7678
G3 X71.7154 Y99.3574 I-3.542 J-14.5758
G3 X69.2143 Y98.8953 Z-2.0 I1.4652 J-14.9283
G3 X66.4149 Y97.8167 I3.9663 J-14.4661
G3 X64.2503 Y96.4811 Z-3.0 I6.7657 J-13.3875
G3 X60.7741 Y92.86 I8.9303 J-12.052
G3 X59.5281 Y90.6427 Z-2.0 I12.4065 J-8.4308
G3 X58.5646 Y87.8016 I13.6526 J-6.2135
G3 X58.5105 Y87.5575 Z-2.009 I14.616 J-3.3724
G3 X58.205 Y85.2837 Z-2.0898 I14.6702 J-3.1283
G3 X58.1938 Y85.0575 Z-2.0 I14.9756 J-0.8546
G3 X58.3693 Y82.0575 I14.9868 J-0.6283
G3 X58.7616 Y80.295 Z-2.7003 I14.8113 J2.3717
G3 X58.9938 Y79.5575 Z-2.4837 I14.419 J4.1341
G3 X59.6673 Y77.9183 Z-2.0 I14.1868 J4.8717
G3 X61.2332 Y75.3594 I13.5133 J6.5108
G3 X62.9373 Y73.4713 Z-3.0 I11.9474 J9.0697
G3 X67.1262 Y70.7053 I10.2433 J10.9579
G3 X69.5319 Y69.8797 Z-2.0 I6.0545 J13.7238
G3 X72.5001 Y69.4446 I3.6488 J14.5495
G3 X75.0416 Y69.545 Z-3.0 I0.6805 J14.9846
G3 X79.848 Y70.9924 I-1.8609 J14.8841
G3 X82.0223 Y72.3121 Z-2.0 I-6.6674 J13.4367
G3 X84.2568 Y74.3139 I-8.8417 J12.1171
G3 X85.8004 Y76.3211 Z-3.0 I-11.0761 J10.1153
G2 X85.8066 Y76.3306 I2.9446 J-1.8919
G2 X87.9398 Y77.8353 I2.9385 J-1.9014
G2 X88.745 Y77.9292 Z-2.6757 I0.8052 J-3.4061
G1 X90.4398 Z-2.0
G1 X90.4831
G1 X92.9831
G1 X93.4398
G1 X95.9398
G1 X95.9831
G1 X98.4831 Z-3.0
G1 X103.1806
G3 X103.942 Y78.1367 I0.0 J1.5
G1 X105.7875 Y78.8732
G3 X107.1806 Y77.9292 I1.3932 J0.556
G1 X109.7806
G1 X112.2806 Z-2.0
G1 X115.2806
G1 X117.3806 Z-2.84
G1 X117.7806 Z-2.7056
G1 X119.8806 Z-2.0
G1 X122.8806
G1 X125.1806 Z-2.92
G3 X125.3806 Y77.9426 Z-3.0 I0.0 J1.5
G3 X126.6672 Y79.2292 I-0.2 J1.4866
G3 X126.6806 Y79.4292 Z-2.9198 I-1.4866 J0.2
G1 Y81.7292 Z-2.0
G1 Y84.7292
G1 Y86.8292 Z-2.84
G1 Y87.2292 Z-2.7056
G1 Y89.3292 Z-2.0
G1 Y92.3292
G1 Y94.8292 Z-3.0
G1 Y99.4292
G3 X125.1806 Y100.9292 I-1.5 J0.0
G1 X122.5806
G1 X120.0806 Z-2.0
G1 X117.0806
G1 X114.9806 Z-2.84
G1 X114.5806 Z-2.7056
G1 X112.4806 Z-2.0
G1 X109.4806
G1 X107.1806 Z-2.92
G3 X106.9806 Y100.9158 Z-3.0 I0.0 J-1.5
G3 X105.694 Y99.6292 I0.2 J-1.4866
G3 X105.6806 Y99.4292 Z-2.9198 I1.4866 J-0.2
G1 Y97.1292 Z-2.0
G1 Y94.1292
G1 Y92.0292 Z-2.84
G1 Y91.6292 Z-2.7056
G1 Y89.5292 Z-2.0
G1 Y86.5292
G1 Y84.0292 Z-3.0
G1 Y79.4292
G3 X105.7875 Y78.8732 I1.5 J0.0
G1 Z-4.0
G3 X107.1806 Y77.9292 I1.3932 J0.556
G1 X109.7806
G1 X112.2806 Z-2.0
G1 X115.2806
G1 X117.3806 Z-3.68
G1 X117.7806 Z-3.4112
G1 X119.8806 Z-2.0
G1 X122.8806
G1 X125.1806 Z-3.84
G3 X125.3806 Y77.9426 Z-4.0 I0.0 J1.5
G3 X126.6672 Y79.2292 I-0.2 J1.4866
G3 X126.6806 Y79.4292 Z-3.8396 I-1.4866 J0.2
G1 Y81.7292 Z-2.0
G1 Y84.7292
G1 Y86.8292 Z-3.68
G1 Y87.2292 Z-3.4112
G1 Y89.3292 Z-2.0
G1 Y92.3292
G1 Y94.8292 Z-4.0
G1 Y99.4292
G3 X125.1806 Y100.9292 I-1.5 J0.0
G1 X122.5806
G1 X120.0806 Z-2.0
G1 X117.0806
G1 X114.9806 Z-3.68
G1 X114.5806 Z-3.4112
G1 X112.4806 Z-2.0
G1 X109.4806
G1 X107.1806 Z-3.84
G3 X106.9806 Y100.9158 Z-4.0 I0.0 J-1.5
G3 X105.694 Y99.6292 I0.2 J-1.4866
G3 X105.6806 Y99.4292 Z-3.8396 I1.4866 J-0.2
G1 Y97.1292 Z-2.0
G1 Y94.1292
G1 Y92.0292 Z-3.68
G1 Y91.6292 Z-3.4112
G1 Y89.5292 Z-2.0
G1 Y86.5292
G1 Y84.0292 Z-4.0
G1 Y79.4292
G3 X105.7875 Y78.8732 I1.5 J0.0
G0 Z3.0
G0 X84.4478 Y65.3994
G1 Z-3.0
G3 X82.2703 Y67.5182 I-5.4961 J-3.4702
G3 X79.7703 Y68.3774 Z-2.0 I-3.3186 J-5.589
G3 X78.9517 Y68.4292 I-0.8186 J-6.4482
G1 X76.7703
G1 X74.878 Z-2.5749
G1 X74.2703 Z-2.7595
G1 X72.3513 Z-2.0
G1 X69.3192
G1 X66.7925 Z-3.0
G1 X64.6558
G1 X63.9517 Z-2.7184
G3 X61.922 Y68.1041 Z-2.0 I0.0 J-6.5
G3 X59.3651 Y66.5349 I2.0297 J-6.175
G3 X57.8626 Y64.2036 Z-3.0 I4.5866 J-4.6058
G3 X57.4517 Y61.9292 I6.0891 J-2.2744
G1 Y58.1062
G1 Y55.6062 Z-2.0
G1 Y53.9601
G1 Y52.6062
G1 Y51.4601
G1 Y50.1062
G1 Y48.4601
G1 Y45.9601 Z-3.0
G1 Y36.8893
G1 Y36.2354 Z-2.7384
G1 Y34.3893 Z-2.0
G1 Y33.7354
G1 Y31.3893
G1 Y30.7354
G1 Y28.8893 Z-2.7384
G1 Y28.2354 Z-3.0
G1 Y19.8185
G1 Y17.3185 Z-2.0
G1 Y14.3646
G1 Y14.3185
G1 Y11.8646
G1 Y11.8185
G1 Y8.8646
G1 Y6.3646 Z-3.0
G1 Y4.4292
G3 X58.9517 Y2.9292 I1.5 J0.0
G1 X60.6331
G1 X63.1331 Z-2.0
G1 X66.1331
G1 X68.6331 Z-3.0
G1 X83.9517
G3 X85.4517 Y4.4292 I0.0 J1.5
G1 Y15.2522
G1 Y17.7522 Z-2.0
G1 Y19.5022
G1 Y20.7522
G1 Y22.0022
G1 Y23.2522
G1 Y25.0022
G1 Y27.5022 Z-3.0
G1 Y32.323
G1 Y34.823 Z-2.0
G1 Y37.823
G1 Y38.273 Z-2.0324
G1 Y40.323 Z-2.18
G1 Y40.773 Z-2.0
G1 Y43.773
G1 Y46.273 Z-3.0
G1 Y49.3938
G1 Y51.8938 Z-2.0
G1 Y54.8938
G1 Y57.0438 Z-2.7396
G1 Y57.3938 Z-2.86
G1 Y59.5438 Z-2.0
G1 Y61.9292
G3 X85.4226 Y62.5438 I-6.5 J0.0
G3 X84.6569 Y65.0438 Z-3.0 I-6.4709 J-0.6146
G3 X84.4478 Y65.3994 I-5.7052 J-3.1146
G1 Z-4.0
G3 X82.2703 Y67.5182 I-5.4961 J-3.4702
G3 X79.7703 Y68.3774 Z-2.0 I-3.3186 J-5.589
G3 X78.9517 Y68.4292 I-0.8186 J-6.4482
G1 X76.7703
G1 X74.878 Z-3.1498
G1 X74.2703 Z-3.519
G1 X72.3513 Z-2.0
G1 X69.3192
G1 X66.7925 Z-4.0
G1 X64.6558
G1 X63.9517 Z-3.4367
G3 X61.922 Y68.1041 Z-2.0 I0.0 J-6.5
G3 X59.3651 Y66.5349 I2.0297 J-6.175
G3 X57.8626 Y64.2036 Z-4.0 I4.5866 J-4.6058
G3 X57.4517 Y61.9292 I6.0891 J-2.2744
G1 Y58.1062
G1 Y55.6062 Z-2.0
G1 Y53.9601
G1 Y52.6062
G1 Y51.4601
G1 Y50.1062
G1 Y48.4601
G1 Y45.9601 Z-4.0
G1 Y36.8893
G1 Y36.2354 Z-3.4768
G1 Y34.3893 Z-2.0
G1 Y33.7354
G1 Y31.3893
G1 Y30.7354
G1 Y28.8893 Z-3.4768
G1 Y28.2354 Z-4.0
G1 Y19.8185
G1 Y17.3185 Z-2.0
G1 Y14.3646
G1 Y14.3185
G1 Y11.8646
G1 Y11.8185
G1 Y8.8646
G1 Y6.3646 Z-4.0
G1 Y4.4292
G3 X58.9517 Y2.9292 I1.5 J0.0
G1 X60.6331
G1 X63.1331 Z-2.0
G1 X66.1331
G1 X68.6331 Z-4.0
G1 X83.9517
G3 X85.4517 Y4.4292 I0.0 J1.5
G1 Y15.2522
G1 Y17.7522 Z-2.0
G1 Y19.5022
G1 Y20.7522
G1 Y22.0022
G1 Y23.2522
G1 Y25.0022
G1 Y27.5022 Z-4.0
G1 Y32.323
G1 Y34.823 Z-2.0
G1 Y37.823
G1 Y38.273 Z-2.0648
G1 Y40.323 Z-2.36
G1 Y40.773 Z-2.0
G1 Y43.773
G1 Y46.273 Z-4.0
G1 Y49.3938
G1 Y51.8938 Z-2.0
G1 Y54.8938
G1 Y57.0438 Z-3.4792
G1 Y57.3938 Z-3.72
G1 Y59.5438 Z-2.0
G1 Y61.9292
G3 X85.4226 Y62.5438 I-6.5 J0.0
G3 X84.6569 Y65.0438 Z-4.0 I-6.4709 J-0.6146
G3 X84.4478 Y65.3994 I-5.7052 J-3.1146
G1 X86.4517
G1 Y65.0438
G1 Y62.5438 Z-2.0
G1 Y59.5438
G1 Y57.3938 Z-3.72
G1 Y57.0438 Z-3.4792
G1 Y54.8938 Z-2.0
G1 Y51.8938
G1 Y49.3938 Z-4.0
G1 Y46.273
G1 Y43.773 Z-2.0
G1 Y40.773
G1 Y40.323 Z-2.36
G1 Y38.273 Z-2.0648
G1 Y37.823 Z-2.0
G1 Y34.823
G1 Y32.323 Z-4.0
G1 Y27.5022
G1 Y25.0022 Z-2.0
G1 Y23.2522
G1 Y22.0022
G1 Y20.7522
G1 Y19.5022
G1 Y17.7522
G1 Y15.2522 Z-4.0
G1 Y4.4292
G3 X87.9517 Y2.9292 I1.5 J0.0
G1 X102.4203
G1 X104.9203 Z-2.0
G1 X107.9203
G1 X110.4203 Z-4.0
G1 X112.9517
G3 X114.4517 Y4.4292 I0.0 J1.5
G1 Y12.6685
G1 Y15.1685 Z-2.0
G1 Y18.1685
G1 Y20.6685 Z-4.0
G1 Y31.4393
G1 Y33.9393 Z-2.0
G1 Y36.9393
G1 Y39.4393 Z-4.0
G1 Y50.2101
G1 Y52.7101 Z-2.0
G1 Y55.7101
G1 Y58.2101 Z-4.0
G1 Y69.4839
G1 Y70.4292 Z-3.2438
G3 X114.2031 Y72.2098 Z-2.0 I-6.5 J0.0
G3 X112.7376 Y74.8275 I-6.2514 J-1.7806
G3 X110.4684 Y76.4222 Z-4.0 I-4.7859 J-4.3983
G3 X107.9517 Y76.9292 I-2.5167 J-5.993
G1 X98.4831
G1 X95.9831 Z-2.0
G1 X92.9831
G1 X92.9517 Z-2.0251
G3 X90.4831 Y76.4422 Z-4.0 I0.0 J-6.5
G3 X86.4517 Y70.4292 I2.4686 J-6.013
G1 Y65.3994
G0 Z3.0
G0 X56.4364 Y69.7157
G1 Z-3.0
G3 X56.4517 Y69.9292 I-1.4847 J0.2135
G1 Y79.5575
G1 Y82.0575 Z-2.0
G1 Y85.0575
G1 Y87.5575 Z-3.0
G1 Y89.9292
G3 X54.9517 Y91.4292 I-1.5 J0.0
G1 X52.3732
G1 X52.2222 Z-2.9396
G1 X49.9517 Z-2.0314
G3 X49.7429 Y91.4146 Z-2.0 I0.0 J-1.5
G3 X49.6008 Y91.3875 I0.2088 J-1.4854
G3 X49.4774 Y91.3522 I0.3509 J-1.4584
G1 X46.889 Y90.4894
G1 X46.753 Y90.4441
G1 X44.5173 Y89.6988 Z-2.9427
G1 X44.3813 Y89.6535 Z-3.0
G1 X40.0173 Y88.1988
G1 X39.8813 Y88.1535 Z-2.9427
G1 X37.6456 Y87.4082 Z-2.0
G1 X37.5096 Y87.3629
G1 X34.7995 Y86.4596
G1 X34.6636 Y86.4142
G1 X32.4278 Y85.669 Z-2.9427
G1 X32.2919 Y85.6237 Z-3.0
G1 X27.9278 Y84.169
G1 X27.7919 Y84.1237 Z-2.9427
G1 X25.5561 Y83.3784 Z-2.0
G1 X25.4202 Y83.3331
G1 X22.71 Y82.4297
G1 X22.5741 Y82.3844
G1 X20.3383 Y81.6392 Z-2.9427
G1 X20.2024 Y81.5939 Z-3.0
G1 X15.8383 Y80.1392
G1 X15.7024 Y80.0939 Z-2.9427
G1 X13.4666 Y79.3486 Z-2.0
G1 X13.3307 Y79.3033
G1 X10.6206 Y78.3999
G1 X10.4846 Y78.3546
G1 X8.2489 Y77.6094 Z-2.9427
G1 X8.1129 Y77.564 Z-3.0
G1 X4.4774 Y76.3522
G3 X3.4517 Y74.9292 I0.4743 J-1.423
G1 Y69.9292
G3 X4.9517 Y68.4292 I1.5 J0.0
G1 X13.6063
G1 X16.1063 Z-2.0
G1 X16.8871
G1 X19.1063
G1 X19.3871
G1 X21.6063
G1 X22.3871
G1 X24.8871 Z-3.0
G1 X26.3498
G1 X28.8498 Z-2.0
G1 X31.8498
G1 X34.3498 Z-3.0
G1 X38.7579
G1 X39.0932 Z-2.8659
G1 X41.2579 Z-2.0
G1 X41.5932
G1 X44.2579
G1 X44.5932
G1 X46.7579 Z-2.8659
G1 X47.0932 Z-3.0
G1 X54.9517
G3 X56.4364 Y69.7157 I0.0 J1.5
G1 Z-4.0
G3 X56.4517 Y69.9292 I-1.4847 J0.2135
G1 Y79.5575
G1 Y82.0575 Z-2.0
G1 Y85.0575
G1 Y87.5575 Z-4.0
G1 Y89.9292
G3 X54.9517 Y91.4292 I-1.5 J0.0
G1 X52.3732
G1 X52.2222 Z-3.8792
G1 X49.9517 Z-2.0628
G3 X49.7429 Y91.4146 Z-2.0 I0.0 J-1.5
G3 X49.6008 Y91.3875 I0.2088 J-1.4854
G3 X49.4774 Y91.3522 I0.3509 J-1.4584
G1 X46.889 Y90.4894
G1 X46.753 Y90.4441
G1 X44.5173 Y89.6988 Z-3.8854
G1 X44.3813 Y89.6535 Z-4.0
G1 X40.0173 Y88.1988
G1 X39.8813 Y88.1535 Z-3.8854
G1 X37.6456 Y87.4082 Z-2.0
G1 X37.5096 Y87.3629
G1 X34.7995 Y86.4596
G1 X34.6636 Y86.4142
G1 X32.4278 Y85.669 Z-3.8854
G1 X32.2919 Y85.6237 Z-4.0
G1 X27.9278 Y84.169
G1 X27.7919 Y84.1237 Z-3.8854
G1 X25.5561 Y83.3784 Z-2.0
G1 X25.4202 Y83.3331
G1 X22.71 Y82.4297
G1 X22.5741 Y82.3844
G1 X20.3383 Y81.6392 Z-3.8854
G1 X20.2024 Y81.5939 Z-4.0
G1 X15.8383 Y80.1392
G1 X15.7024 Y80.0939 Z-3.8854
G1 X13.4666 Y79.3486 Z-2.0
G1 X13.3307 Y79.3033
G1 X10.6206 Y78.3999
G1 X10.4846 Y78.3546
G1 X8.2489 Y77.6094 Z-3.8854
G1 X8.1129 Y77.564 Z-4.0
G1 X4.4774 Y76.3522
G3 X3.4517 Y74.9292 I0.4743 J-1.423
G1 Y69.9292
G3 X4.9517 Y68.4292 I1.5 J0.0
G1 X13.6063
G1 X16.1063 Z-2.0
G1 X16.8871
G1 X19.1063
G1 X19.3871
G1 X21.6063
G1 X22.3871
G1 X24.8871 Z-4.0
G1 X26.3498
G1 X28.8498 Z-2.0
G1 X31.8498
G1 X34.3498 Z-4.0
G1 X38.7579
G1 X39.0932 Z-3.7318
G1 X41.2579 Z-2.0
G1 X41.5932
G1 X44.2579
G1 X44.5932
G1 X46.7579 Z-3.7318
G1 X47.0932 Z-4.0
G1 X54.9517
G3 X56.4364 Y69.7157 I0.0 J1.5
G0 Z3.0
G0 X53.8116 Y66.159
G1 Z-4.0
G3 X49.9517 Y67.4292 I-3.8598 J-5.2299
G1 X47.0932
G1 X46.7579 Z-3.7318
G1 X44.5932 Z-2.0
G1 X44.2579
G1 X41.5932
G1 X41.2579
G1 X39.0932 Z-3.7318
G1 X38.7579 Z-4.0
G1 X34.3498
G1 X31.8498 Z-2.0
G1 X28.8498
G1 X26.3498 Z-4.0
G1 X24.8871
G1 X22.3871 Z-2.0
G1 X21.6063
G1 X19.3871
G1 X19.1063
G1 X16.8871
G1 X16.1063
G1 X13.6063 Z-4.0
G1 X9.9517
G3 X3.517 Y61.8477 I0.0 J-6.5
G3 X3.4517 Y60.9292 Z-3.2633 I6.4348 J-0.9186
G1 Y59.3477 Z-2.0
G1 Y56.3477
G1 Y53.8477 Z-4.0
G1 Y39.9769
G1 Y37.4769 Z-2.0
G1 Y34.4769
G1 Y31.9769 Z-4.0
G1 Y18.1062
G1 Y15.6062 Z-2.0
G1 Y12.6062
G1 Y10.1062 Z-4.0
G1 Y4.4292
G3 X4.9517 Y2.9292 I1.5 J0.0
G1 X13.1455
G1 X15.6455 Z-2.0
G1 X18.6455
G1 X21.1455 Z-4.0
G1 X35.0163
G1 X37.5163 Z-2.0
G1 X40.5163
G1 X43.0163 Z-4.0
G1 X54.9517
G3 X56.4517 Y4.4292 I0.0 J1.5
G1 Y6.3646
G1 Y8.8646 Z-2.0
G1 Y11.8185
G1 Y11.8646
G1 Y14.3185
G1 Y14.3646
G1 Y17.3185
G1 Y19.8185 Z-4.0
G1 Y28.2354
G1 Y28.8893 Z-3.4768
G1 Y30.7354 Z-2.0
G1 Y31.3893
G1 Y33.7354
G1 Y34.3893
G1 Y36.2354 Z-3.4768
G1 Y36.8893 Z-4.0
G1 Y45.9601
G1 Y48.4601 Z-2.0
G1 Y50.1062
G1 Y51.4601
G1 Y52.6062
G1 Y53.9601
G1 Y55.6062
G1 Y58.1062 Z-4.0
G1 Y60.9292
G3 X53.8116 Y66.159 I-6.5 J0.0
G0 Z3.0
G0 X62.269 Y74.1366
G1 Z-3.282
G3 X62.9373 Y73.4713 Z-4.0 I10.9116 J10.2925
G3 X67.1262 Y70.7053 I10.2433 J10.9579
G3 X69.5319 Y69.8797 Z-2.0 I6.0545 J13.7238
G3 X72.5001 Y69.4446 I3.6488 J14.5495
G3 X75.0416 Y69.545 Z-4.0 I0.6805 J14.9846
G3 X79.848 Y70.9924 I-1.8609 J14.8841
G3 X82.0223 Y72.3121 Z-2.0 I-6.6674 J13.4367
G3 X84.2568 Y74.3139 I-8.8417 J12.1171
G3 X85.8004 Y76.3211 Z-4.0 I-11.0761 J10.1153
G2 X85.8066 Y76.3306 I2.9446 J-1.8919
G2 X87.9398 Y77.8353 I2.9385 J-1.9014
G2 X88.745 Y77.9292 Z-3.3515 I0.8052 J-3.4061
G1 X90.4398 Z-2.0
G1 X90.4831
G1 X92.9831
G1 X93.4398
G1 X95.9398
G1 X95.9831
G1 X98.4831 Z-4.0
G1 X103.1806
G3 X104.6806 Y79.4292 I0.0 J1.5
G1 Y82.9292
G1 Y85.9292
G1 Y89.4292
G3 X103.1806 Y90.9292 I-1.5 J0.0
G1 X92.9398
G1 X90.4398 Z-2.0
G1 X88.745
G2 X87.4398 Y91.1816 I0.0 J3.5
G2 X85.8004 Y92.5373 Z-3.7018 I1.3052 J3.2475
G3 X84.9398 Y93.7416 Z-4.0 I-12.6198 J-8.1081
G3 X83.7112 Y95.1113 I-11.7592 J-9.3125
G3 X81.755 Y96.7369 Z-2.0 I-10.5305 J-10.6821
G3 X79.1343 Y98.197 I-8.5744 J-12.3077
G3 X76.7227 Y99.005 Z-4.0 I-5.9537 J-13.7678
G3 X71.7154 Y99.3574 I-3.542 J-14.5758
G3 X69.2143 Y98.8953 Z-2.0 I1.4652 J-14.9283
G3 X66.4149 Y97.8167 I3.9663 J-14.4661
G3 X64.2503 Y96.4811 Z-4.0 I6.7657 J-13.3875
G3 X60.7741 Y92.86 I8.9303 J-12.052
G3 X59.5281 Y90.6427 Z-2.0 I12.4065 J-8.4308
G3 X58.5646 Y87.8016 I13.6526 J-6.2135
G3 X58.5105 Y87.5575 Z-2.018 I14.616 J-3.3724
G3 X58.205 Y85.2837 Z-2.1796 I14.6702 J-3.1283
G3 X58.1938 Y85.0575 Z-2.0 I14.9756 J-0.8546
G3 X58.3693 Y82.0575 I14.9868 J-0.6283
G3 X58.7616 Y80.295 Z-3.4005 I14.8113 J2.3717
G3 X58.9938 Y79.5575 Z-2.9673 I14.419 J4.1341
G3 X59.6673 Y77.9183 Z-2.0 I14.1868 J4.8717
G3 X61.2332 Y75.3594 I13.5133 J6.5108
G3 X62.269 Y74.1366 Z-3.282 I11.9474 J9.0697
G0 Z3.0
G0 X55.4315 Y94.391
G1 Z-4.0
G3 X56.4517 Y95.8122 I-0.4798 J1.4212
G1 Y100.8122
G3 X54.9517 Y102.3122 I-1.5 J0.0
G1 X46.2971
G1 X43.7971 Z-2.0
G1 X40.7971
G1 X38.2971 Z-4.0
G1 X33.5537
G1 X31.0537 Z-2.0
G1 X28.0537
G1 X25.5537 Z-4.0
G1 X20.8103
G1 X18.3103 Z-2.0
G1 X15.3103
G1 X12.8103 Z-4.0
G1 X4.9517
G3 X3.4517 Y100.8122 I0.0 J-1.5
G1 Y91.1839
G1 Y88.6839 Z-2.0
G1 Y85.6839
G1 Y83.1839 Z-4.0
G1 Y80.8122
G3 X4.9517 Y79.3122 I1.5 J0.0
G1 X7.5302
G1 X7.6813 Z-3.8792
G1 X9.9517 Z-2.0628
G3 X10.1606 Y79.3268 Z-2.0 I0.0 J1.5
G3 X10.3026 Y79.3538 I-0.2088 J1.4854
G3 X10.4261 Y79.3892 I-0.3509 J1.4584
G1 X13.0145 Y80.252
G1 X13.1504 Y80.2973
G1 X15.3862 Y81.0425 Z-3.8854
G1 X15.5221 Y81.0879 Z-4.0
G1 X19.8862 Y82.5425
G1 X20.0221 Y82.5879 Z-3.8854
G1 X22.2579 Y83.3331 Z-2.0
G1 X22.3938 Y83.3784
G1 X25.1039 Y84.2818
G1 X25.2399 Y84.3271
G1 X27.4756 Y85.0724 Z-3.8854
G1 X27.6116 Y85.1177 Z-4.0
G1 X31.9756 Y86.5724
G1 X32.1116 Y86.6177 Z-3.8854
G1 X34.3473 Y87.3629 Z-2.0
G1 X34.4833 Y87.4083
G1 X37.1934 Y88.3116
G1 X37.3293 Y88.3569
G1 X39.5651 Y89.1022 Z-3.8854
G1 X39.701 Y89.1475 Z-4.0
G1 X44.0651 Y90.6022
G1 X44.201 Y90.6475 Z-3.8854
G1 X46.4368 Y91.3928 Z-2.0
G1 X46.5728 Y91.4381
G1 X49.2829 Y92.3414
G1 X49.4188 Y92.3868
G1 X51.6546 Y93.132 Z-3.8854
G1 X51.7905 Y93.1773 Z-4.0
G1 X55.4261 Y94.3892
G3 X55.4315 Y94.391 I-0.4743 J1.423
G0 Z3.0
M5
M30
